assets/img/icons/car.svg

<svg xmlns="http://www.w3.org/2000/svg" width="1024" height="855"><defs><clipPath clipPathUnits="userSpaceOnUse" id="cp1"><path d="M0 0h1024v855H0z"/></clipPath></defs><style>.shp0{fill:#000}</style><g id="Page 1" clip-path="url(#cp1)"><path id="Path 1" fill-rule="evenodd" class="shp0" d="M1024 189v93.19c0 7.41-5.32 13.74-12.62 15.02l-136.39 23.78c11.44 19.34 18.03 41.86 18.03 65.91v48.87h68.64c8.42 0 15.24 6.82 15.24 15.23v206.46c0 .17-.02.35-.03.53.01.18.03.35.03.53v181.24c0 8.42-6.82 15.24-15.24 15.24H788.31c-8.41 0-15.24-6.82-15.24-15.24V672.69H253.68v167.07c0 8.42-6.82 15.24-15.23 15.24H65.1c-8.42 0-15.24-6.82-15.24-15.24V658.52c0-.18.02-.35.03-.53-.01-.18-.03-.36-.03-.53V451c0-8.41 6.82-15.23 15.24-15.23h68.64V386.9c0-23.87 6.5-46.23 17.78-65.47l-138.9-24.22A15.245 15.245 0 010 282.19V189c0-8.42 6.82-15.24 15.24-15.24h160.3c6.22 0 11.56 3.73 13.92 9.07l20.12-169.65c.91-7.67 7.41-13.45 15.13-13.45h577.34c7.72 0 14.22 5.78 15.13 13.45l19.68 165.95c2.79-3.28 6.95-5.37 11.6-5.37h160.3c8.42 0 15.24 6.82 15.24 15.24zM893.02 466.24v175.98h53.4V466.24h-53.4zm53.4 207.52H803.55v150.77h142.87V673.76zm-723.21 0H80.34v150.77h142.87V673.76zM80.34 642.22h53.4V466.24h-53.4v175.98zM30.48 269.38l129.82 22.65v-87.8H30.48v65.15zm179.5-.71c14.91-6.8 31.32-10.85 48.59-11.52l15.54-169.1c.72-7.84 7.3-13.84 15.17-13.84h431.48c7.88 0 14.46 6 15.17 13.84l15.53 168.98h11.69c19.12 0 37.27 4.18 53.64 11.64L788.51 30.21H238.25l-28.27 238.46zm510.88-11.64l-14-152.34H303.18l-14 152.34h431.68zM862.55 386.9c0-54.81-44.59-99.4-99.4-99.4H263.61c-54.81 0-99.4 44.59-99.4 99.4v157.46h227.2V342.4c0-8.41 6.82-15.23 15.23-15.23 8.42 0 15.24 6.82 15.24 15.23v201.96h37.14V342.4c0-8.41 6.82-15.23 15.23-15.23 8.42 0 15.24 6.82 15.24 15.23v201.96h44.65V342.4c0-8.41 6.82-15.23 15.24-15.23 8.41 0 15.23 6.82 15.23 15.23v201.96h44.65V342.4c0-8.41 6.82-15.23 15.24-15.23s15.24 6.82 15.24 15.23v201.96h222.81V386.9zM164.21 642.22h698.34v-67.38H164.21v67.38zm829.32-437.99H863.7v87.8l129.83-22.65v-65.15z"/><path id="Path 2" fill-rule="evenodd" class="shp0" d="M354.09 392.12c0 41.23-33.54 74.76-74.76 74.76-41.22 0-74.76-33.53-74.76-74.76 0-41.22 33.54-74.76 74.76-74.76 41.22 0 74.76 33.54 74.76 74.76zm-30.47 0c0-24.42-19.87-44.29-44.29-44.29-24.42 0-44.29 19.87-44.29 44.29 0 24.42 19.87 44.29 44.29 44.29 24.42 0 44.29-19.87 44.29-44.29zm494.77 0c0 41.23-33.54 74.76-74.76 74.76-41.23 0-74.77-33.53-74.77-74.76 0-41.22 33.54-74.76 74.77-74.76 41.22 0 74.76 33.54 74.76 74.76zm-30.48 0c0-24.42-19.86-44.29-44.28-44.29-24.43 0-44.29 19.87-44.29 44.29 0 24.42 19.86 44.29 44.29 44.29 24.42 0 44.28-19.87 44.28-44.29z"/></g></svg>

<svg xmlns="http://www.w3.org/2000/svg" viewBox="0 0 1024 855" width="102" height="85">
	<defs>
		<clipPath clipPathUnits="userSpaceOnUse" id="cp1">
			<path d="M0 0L1024 0L1024 855L0 855Z" />
		</clipPath>
	</defs>
	<style>
		tspan {
			white-space: pre
		}
	</style>
	<g id="Page 1" clip-path="url(#cp1)">
		<path id="Path 1" fill-rule="evenodd" fill="#686868" class="shp0"
			d="M1024 189L1024 282.19C1024 289.6 1018.68 295.93 1011.38 297.21L874.99 320.99C886.43 340.33 893.02 362.85 893.02 386.9L893.02 435.77L961.66 435.77C970.08 435.77 976.9 442.59 976.9 451L976.9 657.46C976.9 657.63 976.88 657.81 976.87 657.99C976.88 658.17 976.9 658.34 976.9 658.52L976.9 839.76C976.9 848.18 970.08 855 961.66 855L788.31 855C779.9 855 773.07 848.18 773.07 839.76L773.07 672.69L253.68 672.69L253.68 839.76C253.68 848.18 246.86 855 238.45 855L65.1 855C56.68 855 49.86 848.18 49.86 839.76L49.86 658.52C49.86 658.34 49.88 658.17 49.89 657.99C49.88 657.81 49.86 657.63 49.86 657.46L49.86 451C49.86 442.59 56.68 435.77 65.1 435.77L133.74 435.77L133.74 386.9C133.74 363.03 140.24 340.67 151.52 321.43L12.62 297.21C5.32 295.93 0 289.6 0 282.19L0 189C0 180.58 6.82 173.76 15.24 173.76L175.54 173.76C181.76 173.76 187.1 177.49 189.46 182.83L209.58 13.18C210.49 5.51 216.99 -0.27 224.71 -0.27L802.05 -0.27C809.77 -0.27 816.27 5.51 817.18 13.18L836.86 179.13C839.65 175.85 843.81 173.76 848.46 173.76L1008.76 173.76C1017.18 173.76 1024 180.58 1024 189ZM893.02 466.24L893.02 642.22L946.42 642.22L946.42 466.24L893.02 466.24ZM946.42 673.76L803.55 673.76L803.55 824.53L946.42 824.53L946.42 673.76ZM223.21 673.76L80.34 673.76L80.34 824.53L223.21 824.53L223.21 673.76ZM80.34 642.22L133.74 642.22L133.74 466.24L80.34 466.24L80.34 642.22ZM30.48 269.38L160.3 292.03L160.3 204.23L30.48 204.23L30.48 269.38ZM209.98 268.67C224.89 261.87 241.3 257.82 258.57 257.15L274.11 88.05C274.83 80.21 281.41 74.21 289.28 74.21L720.76 74.21C728.64 74.21 735.22 80.21 735.93 88.05L751.46 257.03L763.15 257.03C782.27 257.03 800.42 261.21 816.79 268.67L788.51 30.21L238.25 30.21L209.98 268.67ZM720.86 257.03L706.86 104.69L303.18 104.69L289.18 257.03L720.86 257.03ZM862.55 386.9C862.55 332.09 817.96 287.5 763.15 287.5L263.61 287.5C208.8 287.5 164.21 332.09 164.21 386.9L164.21 544.36L391.41 544.36L391.41 342.4C391.41 333.99 398.23 327.17 406.64 327.17C415.06 327.17 421.88 333.99 421.88 342.4L421.88 544.36L459.02 544.36L459.02 342.4C459.02 333.99 465.84 327.17 474.25 327.17C482.67 327.17 489.49 333.99 489.49 342.4L489.49 544.36L534.14 544.36L534.14 342.4C534.14 333.99 540.96 327.17 549.38 327.17C557.79 327.17 564.61 333.99 564.61 342.4L564.61 544.36L609.26 544.36L609.26 342.4C609.26 333.99 616.08 327.17 624.5 327.17C632.92 327.17 639.74 333.99 639.74 342.4L639.74 544.36L862.55 544.36L862.55 386.9ZM164.21 642.22L862.55 642.22L862.55 574.84L164.21 574.84L164.21 642.22ZM993.53 204.23L863.7 204.23L863.7 292.03L993.53 269.38L993.53 204.23Z" />
		<path id="Path 2" fill-rule="evenodd" fill="#686868" class="shp0"
			d="M354.09 392.12C354.09 433.35 320.55 466.88 279.33 466.88C238.11 466.88 204.57 433.35 204.57 392.12C204.57 350.9 238.11 317.36 279.33 317.36C320.55 317.36 354.09 350.9 354.09 392.12ZM323.62 392.12C323.62 367.7 303.75 347.83 279.33 347.83C254.91 347.83 235.04 367.7 235.04 392.12C235.04 416.54 254.91 436.41 279.33 436.41C303.75 436.41 323.62 416.54 323.62 392.12ZM818.39 392.12C818.39 433.35 784.85 466.88 743.63 466.88C702.4 466.88 668.86 433.35 668.86 392.12C668.86 350.9 702.4 317.36 743.63 317.36C784.85 317.36 818.39 350.9 818.39 392.12ZM787.91 392.12C787.91 367.7 768.05 347.83 743.63 347.83C719.2 347.83 699.34 367.7 699.34 392.12C699.34 416.54 719.2 436.41 743.63 436.41C768.05 436.41 787.91 416.54 787.91 392.12Z" />
	</g>
</svg>
